X:403
T: ICH WAERE WOHL FROEHLICH
N: B0475
O: Europa, Mitteleuropa, Deutschland, Hessen; Nassau; Westfalen
R: Liebes - Lied, Leid, Klage
M: 6/8
L: 1/16
K: D
A2 | A3BA2A2f2d2 | d4c2c4
B2 | B2A2A2A2G2E2 | D6z4
D2 | G2G2G2d2dcdB | B4A2A4
F2 | A3BA2A2GFGE | D6d2c2
B2 | B2A2A2A2G2E2 | D8z2

